X:1
T:Wilkes Lovell
M:12/8
L:1/8
K:C
 G| C2 C E2 F G2 E G2 E| F2 D C2 B, C2- C2 z E| A2 A G2 A| A2 A C2 D|\
 E2 F A2 G F2- F2 z F| A2 A G2 A A3 C2 D| E2 F A2 G F2- F2 z F| _B,2 B, C2 D D2 C F2 D|\
 _E2 C _B,2 A,| _B,2- B,2 z||

